src/assets/icons/drawer/schedule.svg

<?xml version="1.0" encoding="UTF-8"?>
<svg width="24px" height="22px" viewBox="0 0 24 22" version="1.1" xmlns="http://www.w3.org/2000/svg" xmlns:xlink="http://www.w3.org/1999/xlink">
    <!-- Generator: Sketch 57.1 (83088) - https://sketch.com -->
    <title>icons/side menu/schedule</title>
    <desc>Created with Sketch.</desc>
    <g id="Symbols" stroke="none" stroke-width="1" fill="none" fill-rule="evenodd">
        <g id="icons/side-menu/schedule" fill="#9EA3BA">
            <path d="M5,2 L19,2 C20.1045695,2 21,2.8954305 21,4 L21,8 C21,9.1045695 20.1045695,10 19,10 L5,10 C3.8954305,10 3,9.1045695 3,8 L3,4 C3,2.8954305 3.8954305,2 5,2 Z M5,4 L5,8 L19,8 L19,4 L5,4 Z M5,12 L19,12 C20.1045695,12 21,12.8954305 21,14 L21,18 C21,19.1045695 20.1045695,20 19,20 L5,20 C3.8954305,20 3,19.1045695 3,18 L3,14 C3,12.8954305 3.8954305,12 5,12 Z M5,14 L5,18 L19,18 L19,14 L5,14 Z" id="Combined-Shape"></path>
        </g>
    </g>
</svg>

<svg width="24" height="22" xmlns="http://www.w3.org/2000/svg"><path d="M5 2h14a2 2 0 012 2v4a2 2 0 01-2 2H5a2 2 0 01-2-2V4a2 2 0 012-2zm0 2v4h14V4H5zm0 8h14a2 2 0 012 2v4a2 2 0 01-2 2H5a2 2 0 01-2-2v-4a2 2 0 012-2zm0 2v4h14v-4H5z" fill="#9EA3BA" fill-rule="evenodd"/></svg>
